file/nhk.svg

<svg clip-rule="evenodd" fill-rule="evenodd" stroke-linejoin="round" stroke-miterlimit="1.41421" viewBox="0 0 560 400" xmlns="http://www.w3.org/2000/svg"><g transform="matrix(.899101 0 0 .899101 145.135 65)"><path d="m0 0h300v300.3h-300z" fill="#fff"/><path d="m0 0h150.8v51.9h-150.8z" fill="#e6e6e6"/><path d="m150.8 0h149.2v51.9h-149.2z" fill="#727171"/><path d="m0 235.2h300v65.1h-300z" fill="#e60019"/><g fill-rule="nonzero"><path d="m29.6 165.8 5.5 37.2h.2l5.9-37.2h9.7l5.9 37.2h.2l5.5-37.2h9.7l-9.1 50.3h-11.4l-5.6-36.5h-.1l-5.7 36.5h-11.3l-9.2-50.3z" fill="#3e3a39"/><path d="m87.7 180.4c.4-3.2 1.2-6 2.3-8.3 1.2-2.3 2.9-4.1 5.2-5.4 2.2-1.3 5.3-1.9 9.1-1.9s6.8.7 9.1 1.9c2.3 1.3 4 3.1 5.2 5.4s2 5.1 2.3 8.3c.4 3.2.5 6.7.5 10.5 0 3.9-.2 7.4-.5 10.6-.4 3.2-1.1 6-2.3 8.3s-2.9 4.1-5.2 5.3-5.3 1.8-9.1 1.8-6.8-.6-9.1-1.8-4-3-5.2-5.3-2-5-2.3-8.3c-.3-3.2-.5-6.7-.5-10.6 0-3.8.2-7.3.5-10.5m9.9 19.1c.2 2.4.5 4.3 1 5.8s1.2 2.6 2.1 3.2c.9.7 2.1 1 3.6 1s2.7-.3 3.6-1 1.6-1.7 2.1-3.2.8-3.4 1-5.8.2-5.2.2-8.6-.1-6.2-.2-8.6c-.2-2.4-.5-4.3-1-5.8s-1.2-2.6-2.1-3.3-2.1-1-3.6-1-2.7.3-3.6 1-1.6 1.8-2.1 3.3-.8 3.4-1 5.8c-.2 2.3-.2 5.2-.2 8.6-.1 3.4 0 6.3.2 8.6" fill="#3e3a39"/><path d="m161.6 165.8c4.2 0 7.5 1.1 9.9 3.2s3.5 5.4 3.5 9.8c0 3.4-.7 6.1-2 8.3-1.4 2.1-3.5 3.5-6.3 4.1v.1c2.5.4 4.4 1.2 5.5 2.5 1.2 1.3 1.9 3.3 2.2 6.1.1.9.2 2 .2 3.1s.1 2.3.1 3.7c.1 2.7.2 4.7.4 6.1.3 1.4.9 2.4 1.8 2.9v.4h-11c-.5-.7-.9-1.5-1-2.4s-.2-1.9-.3-2.9l-.3-9.6c-.1-2-.6-3.5-1.5-4.6s-2.4-1.7-4.5-1.7h-5.3v21.3h-10.1v-50.3h18.7zm-4.4 21.9c2.5 0 4.3-.6 5.6-1.7s2-3.1 2-5.8c0-4.6-2.4-7-7.1-7h-4.7v14.5z" fill="#3e3a39"/><path d="m199.4 165.8h10.1v41.9h17.9v8.4h-28z" fill="#3e3a39"/><path d="m263.5 165.8c3.5 0 6.4.6 8.5 1.7 2.2 1.2 3.8 2.8 5.1 4.9 1.2 2.1 2 4.7 2.4 7.7s.6 6.4.6 10.1c0 4.4-.3 8.3-.8 11.5-.5 3.3-1.5 5.9-2.8 8.1-1.3 2.1-3.1 3.7-5.3 4.7s-5 1.5-8.4 1.5h-16v-50.3h16.7zm-2 42.8c1.8 0 3.2-.3 4.3-.9s1.9-1.6 2.6-3c.6-1.4 1-3.3 1.3-5.6.2-2.3.3-5.1.3-8.6 0-2.9-.1-5.4-.3-7.5-.2-2.2-.6-4-1.2-5.4s-1.5-2.5-2.6-3.3c-1.2-.7-2.7-1.1-4.6-1.1h-4.3v35.3h4.5z" fill="#3e3a39"/><path d="m94.5 72.2c-5.6-1.9-11.8 1-13.7 6.7l-9.7 27.9-18.3-29.4c-1.2-2.3-3.3-4.2-6-5.2-5.6-2-11.8 1-13.7 6.7l-16.4 47.3c-1.9 5.6 1.1 11.8 6.7 13.8 5.6 1.9 11.8-1 13.7-6.7l9.7-27.9 18.2 29.5c1.2 2.3 3.3 4.2 6 5.1 5.6 1.9 11.8-1 13.7-6.7l16.4-47.3c2-5.7-1-11.8-6.6-13.8" fill="#3e3a39"/><path d="m270.9 122.1-13.8-14.4 25.4-16.1c4.8-3.1 6.3-9.5 3.2-14.3-3-4.8-9.5-6.3-14.3-3.2l-34.2 21.8 3.4-9.9c1.9-5.7-1-11.8-6.7-13.8-5.6-2-11.8 1-13.8 6.7l-16.4 47.3c-1.9 5.6 1 11.8 6.7 13.8 5.6 1.9 11.8-1 13.7-6.7l7.5-21.5 23.9 25.1c4.1 4.2 10.8 4.4 15 .4 4.3-4.2 4.4-11 .4-15.2" fill="#3e3a39"/><path d="m188.3 72.1c-5.6-1.9-11.8 1-13.8 6.7l-6 17.3h-24.8l3.5-10.2c2-5.6-1-11.8-6.7-13.8-5.7-1.9-11.8 1-13.8 6.7l-16.4 47.3c-1.9 5.6 1 11.8 6.7 13.7 5.6 2 11.8-1 13.7-6.7l6.1-17.5h24.8l-3.6 10.4c-2 5.6 1 11.8 6.7 13.8 5.6 2 11.8-1 13.7-6.7l16.4-47.3c2.1-5.6-.9-11.7-6.5-13.7" fill="#3e3a39"/><path d="m87.1 246.9v29.7c0 8.8-4 12.4-12.4 12.4-8.8 0-10.9-5.6-10.9-12.1v-1.8h7.6v1.3c0 4.4.7 6.5 3.7 6.5s3.7-2.1 3.7-6.5v-29.5z" fill="#fff"/><path d="m106.7 246.9h10.3l10.9 41.2h-8.7l-1.9-8.7h-11l-1.9 8.7h-8.7zm1.1 25.7h8.1l-4-18.5h-.1z" fill="#fff"/><path d="m138 246.9h14.5c8.4 0 11.3 6.2 11.3 12.4 0 8.6-5.3 12.4-13.1 12.4h-4.4v16.5h-8.3zm8.3 18.7h3.7c3.3 0 5.5-2 5.5-6.2 0-4-1.6-6.4-5.8-6.4h-3.5v12.6z" fill="#fff"/><path d="m178.7 246.9h10.3l10.9 41.2h-8.7l-1.9-8.7h-11l-1.9 8.7h-8.7zm1.1 25.7h8.1l-4-18.5h-.1z" fill="#fff"/><path d="m218.5 246.9 10 28.3h.1v-28.3h7.6v41.3h-9.4l-10.2-28.9h-.1v28.9h-7.6v-41.3z" fill="#fff"/></g></g></svg>

<?xml version="1.0" encoding="UTF-8" standalone="no"?>
<!DOCTYPE svg PUBLIC "-//W3C//DTD SVG 1.1//EN" "http://www.w3.org/Graphics/SVG/1.1/DTD/svg11.dtd">
<svg width="100%" height="100%" viewBox="0 0 560 400" version="1.1" xmlns="http://www.w3.org/2000/svg" xmlns:xlink="http://www.w3.org/1999/xlink" xml:space="preserve" xmlns:serif="http://www.serif.com/" style="fill-rule:evenodd;clip-rule:evenodd;stroke-linejoin:round;stroke-miterlimit:1.41421;">
    <g transform="matrix(0.899101,0,0,0.899101,145.135,65)">
        <rect x="0" y="0" width="300" height="300.3" style="fill:white;"/>
        <rect x="0" y="0" width="150.8" height="51.9" style="fill:rgb(230,230,230);"/>
        <rect x="150.8" y="0" width="149.2" height="51.9" style="fill:rgb(114,113,113);"/>
        <rect x="0" y="235.2" width="300" height="65.1" style="fill:rgb(230,0,25);"/>
        <path d="M29.6,165.8L35.1,203L35.3,203L41.2,165.8L50.9,165.8L56.8,203L57,203L62.5,165.8L72.2,165.8L63.1,216.1L51.7,216.1L46.1,179.6L46,179.6L40.3,216.1L29,216.1L19.8,165.8L29.6,165.8Z" style="fill:rgb(62,58,57);fill-rule:nonzero;"/>
        <path d="M87.7,180.4C88.1,177.2 88.9,174.4 90,172.1C91.2,169.8 92.9,168 95.2,166.7C97.4,165.4 100.5,164.8 104.3,164.8C108.1,164.8 111.1,165.5 113.4,166.7C115.7,168 117.4,169.8 118.6,172.1C119.8,174.4 120.6,177.2 120.9,180.4C121.3,183.6 121.4,187.1 121.4,190.9C121.4,194.8 121.2,198.3 120.9,201.5C120.5,204.7 119.8,207.5 118.6,209.8C117.4,212.1 115.7,213.9 113.4,215.1C111.1,216.3 108.1,216.9 104.3,216.9C100.5,216.9 97.5,216.3 95.2,215.1C92.9,213.9 91.2,212.1 90,209.8C88.8,207.5 88,204.8 87.7,201.5C87.4,198.3 87.2,194.8 87.2,190.9C87.2,187.1 87.4,183.6 87.7,180.4M97.6,199.5C97.8,201.9 98.1,203.8 98.6,205.3C99.1,206.8 99.8,207.9 100.7,208.5C101.6,209.2 102.8,209.5 104.3,209.5C105.8,209.5 107,209.2 107.9,208.5C108.8,207.8 109.5,206.8 110,205.3C110.5,203.8 110.8,201.9 111,199.5C111.2,197.1 111.2,194.3 111.2,190.9C111.2,187.5 111.1,184.7 111,182.3C110.8,179.9 110.5,178 110,176.5C109.5,175 108.8,173.9 107.9,173.2C107,172.5 105.8,172.2 104.3,172.2C102.8,172.2 101.6,172.5 100.7,173.2C99.8,173.9 99.1,175 98.6,176.5C98.1,178 97.8,179.9 97.6,182.3C97.4,184.6 97.4,187.5 97.4,190.9C97.3,194.3 97.4,197.2 97.6,199.5" style="fill:rgb(62,58,57);fill-rule:nonzero;"/>
        <path d="M161.6,165.8C165.8,165.8 169.1,166.9 171.5,169C173.9,171.1 175,174.4 175,178.8C175,182.2 174.3,184.9 173,187.1C171.6,189.2 169.5,190.6 166.7,191.2L166.7,191.3C169.2,191.7 171.1,192.5 172.2,193.8C173.4,195.1 174.1,197.1 174.4,199.9C174.5,200.8 174.6,201.9 174.6,203C174.6,204.1 174.7,205.3 174.7,206.7C174.8,209.4 174.9,211.4 175.1,212.8C175.4,214.2 176,215.2 176.9,215.7L176.9,216.1L165.9,216.1C165.4,215.4 165,214.6 164.9,213.7C164.8,212.8 164.7,211.8 164.6,210.8L164.3,201.2C164.2,199.2 163.7,197.7 162.8,196.6C161.9,195.5 160.4,194.9 158.3,194.9L153,194.9L153,216.2L142.9,216.2L142.9,165.9L161.6,165.9L161.6,165.8ZM157.2,187.7C159.7,187.7 161.5,187.1 162.8,186C164.1,184.9 164.8,182.9 164.8,180.2C164.8,175.6 162.4,173.2 157.7,173.2L153,173.2L153,187.7L157.2,187.7Z" style="fill:rgb(62,58,57);fill-rule:nonzero;"/>
        <path d="M199.4,165.8L209.5,165.8L209.5,207.7L227.4,207.7L227.4,216.1L199.4,216.1L199.4,165.8Z" style="fill:rgb(62,58,57);fill-rule:nonzero;"/>
        <path d="M263.5,165.8C267,165.8 269.9,166.4 272,167.5C274.2,168.7 275.8,170.3 277.1,172.4C278.3,174.5 279.1,177.1 279.5,180.1C279.9,183.1 280.1,186.5 280.1,190.2C280.1,194.6 279.8,198.5 279.3,201.7C278.8,205 277.8,207.6 276.5,209.8C275.2,211.9 273.4,213.5 271.2,214.5C269,215.5 266.2,216 262.8,216L246.8,216L246.8,165.7L263.5,165.7L263.5,165.8ZM261.5,208.6C263.3,208.6 264.7,208.3 265.8,207.7C266.9,207.1 267.7,206.1 268.4,204.7C269,203.3 269.4,201.4 269.7,199.1C269.9,196.8 270,194 270,190.5C270,187.6 269.9,185.1 269.7,183C269.5,180.8 269.1,179 268.5,177.6C267.9,176.2 267,175.1 265.9,174.3C264.7,173.6 263.2,173.2 261.3,173.2L257,173.2L257,208.5L261.5,208.5L261.5,208.6Z" style="fill:rgb(62,58,57);fill-rule:nonzero;"/>
        <path d="M94.5,72.2C88.9,70.3 82.7,73.2 80.8,78.9L71.1,106.8L52.8,77.4C51.6,75.1 49.5,73.2 46.8,72.2C41.2,70.2 35,73.2 33.1,78.9L16.7,126.2C14.8,131.8 17.8,138 23.4,140C29,141.9 35.2,139 37.1,133.3L46.8,105.4L65,134.9C66.2,137.2 68.3,139.1 71,140C76.6,141.9 82.8,139 84.7,133.3L101.1,86C103.1,80.3 100.1,74.2 94.5,72.2" style="fill:rgb(62,58,57);fill-rule:nonzero;"/>
        <path d="M270.9,122.1L257.1,107.7L282.5,91.6C287.3,88.5 288.8,82.1 285.7,77.3C282.7,72.5 276.2,71 271.4,74.1L237.2,95.9L240.6,86C242.5,80.3 239.6,74.2 233.9,72.2C228.3,70.2 222.1,73.2 220.1,78.9L203.7,126.2C201.8,131.8 204.7,138 210.4,140C216,141.9 222.2,139 224.1,133.3L231.6,111.8L255.5,136.9C259.6,141.1 266.3,141.3 270.5,137.3C274.8,133.1 274.9,126.3 270.9,122.1" style="fill:rgb(62,58,57);fill-rule:nonzero;"/>
        <path d="M188.3,72.1C182.7,70.2 176.5,73.1 174.5,78.8L168.5,96.1L143.7,96.1L147.2,85.9C149.2,80.3 146.2,74.1 140.5,72.1C134.8,70.2 128.7,73.1 126.7,78.8L110.3,126.1C108.4,131.7 111.3,137.9 117,139.8C122.6,141.8 128.8,138.8 130.7,133.1L136.8,115.6L161.6,115.6L158,126C156,131.6 159,137.8 164.7,139.8C170.3,141.8 176.5,138.8 178.4,133.1L194.8,85.8C196.9,80.2 193.9,74.1 188.3,72.1" style="fill:rgb(62,58,57);fill-rule:nonzero;"/>
        <path d="M87.1,246.9L87.1,276.6C87.1,285.4 83.1,289 74.7,289C65.9,289 63.8,283.4 63.8,276.9L63.8,275.1L71.4,275.1L71.4,276.4C71.4,280.8 72.1,282.9 75.1,282.9C78.1,282.9 78.8,280.8 78.8,276.4L78.8,246.9L87.1,246.9Z" style="fill:white;fill-rule:nonzero;"/>
        <path d="M106.7,246.9L117,246.9L127.9,288.1L119.2,288.1L117.3,279.4L106.3,279.4L104.4,288.1L95.7,288.1L106.7,246.9ZM107.8,272.6L115.9,272.6L111.9,254.1L111.8,254.1L107.8,272.6Z" style="fill:white;fill-rule:nonzero;"/>
        <path d="M138,246.9L152.5,246.9C160.9,246.9 163.8,253.1 163.8,259.3C163.8,267.9 158.5,271.7 150.7,271.7L146.3,271.7L146.3,288.2L138,288.2L138,246.9ZM146.3,265.6L150,265.6C153.3,265.6 155.5,263.6 155.5,259.4C155.5,255.4 153.9,253 149.7,253L146.2,253L146.2,265.6L146.3,265.6Z" style="fill:white;fill-rule:nonzero;"/>
        <path d="M178.7,246.9L189,246.9L199.9,288.1L191.2,288.1L189.3,279.4L178.3,279.4L176.4,288.1L167.7,288.1L178.7,246.9ZM179.8,272.6L187.9,272.6L183.9,254.1L183.8,254.1L179.8,272.6Z" style="fill:white;fill-rule:nonzero;"/>
        <path d="M218.5,246.9L228.5,275.2L228.6,275.2L228.6,246.9L236.2,246.9L236.2,288.2L226.8,288.2L216.6,259.3L216.5,259.3L216.5,288.2L208.9,288.2L208.9,246.9L218.5,246.9Z" style="fill:white;fill-rule:nonzero;"/>
    </g>
</svg>
